icon/fa/code-compare.svg

<svg xmlns="http://www.w3.org/2000/svg" viewBox="0 0 512 512"><!--! Font Awesome Free 6.1.2 by @fontawesome - https://fontawesome.com License - https://fontawesome.com/license/free (Icons: CC BY 4.0, Fonts: SIL OFL 1.1, Code: MIT License) Copyright 2022 Fonticons, Inc.--><path d="M320 488c0 9.5-5.6 18.1-14.2 21.9-8.7 3.9-19.7 2.3-25.9-4.1l-80-72c-5-4.5-7.9-11-7.9-17.8 0-6.8 2.9-13.3 7.9-17.8l80-72c6.2-6.4 17.2-8 25.9-4.1 8.6 3.8 14.2 12.4 14.2 21.9v40h16c35.3 0 64-28.7 64-64V153.3c-28.3-13.2-48-40.5-48-73.3 0-44.18 35.8-80 80-80s80 35.82 80 80c0 32.8-19.7 60.1-48 73.3V320c0 70.7-57.3 128-128 128h-16v40zM456 79.1c0-12.36-10.7-24-24-24s-24 11.64-24 24c0 14.15 10.7 24 24 24s24-9.85 24-24zM192 24c0-9.48 5.6-18.068 14.2-21.924a24.14 24.14 0 0 1 25.9 4.085l80 71.999c5 4.55 7.9 11.04 7.9 17.84 0 6.8-2.9 13.3-7.9 17.8l-80 72c-7.1 6.4-17.2 8-25.9 4.1-8.6-3.8-14.2-12.4-14.2-21.9v-40h-16c-35.3 0-64 28.7-64 64v166.7c28.3 12.3 48 40.5 48 73.3 0 44.2-35.8 80-80 80-44.18 0-80-35.8-80-80 0-32.8 19.75-61 48-73.3V192c0-70.7 57.3-128 128-128h16V24zM56 432c0 13.3 10.75 24 24 24s24-10.7 24-24-10.75-24-24-24-24 10.7-24 24z"/></svg>

<svg xmlns="http://www.w3.org/2000/svg" viewBox="0 0 512 512" height="1em" width="1em">
<!--! Font Awesome Free 6.1.2 by @fontawesome - https://fontawesome.com License - https://fontawesome.com/license/free (Icons: CC BY 4.0, Fonts: SIL OFL 1.1, Code: MIT License) Copyright 2022 Fonticons, Inc.-->
  <path d="M320 488C320 497.5 314.4 506.1 305.8 509.9C297.1 513.8 286.1 512.2 279.9 505.8L199.9 433.8C194.9 429.3 192 422.8 192 416C192 409.2 194.9 402.7 199.9 398.2L279.9 326.2C286.1 319.8 297.1 318.2 305.8 322.1C314.4 325.9 320 334.5 320 344V384H336C371.3 384 400 355.3 400 320V153.3C371.7 140.1 352 112.8 352 80C352 35.82 387.8 0 432 0C476.2 0 512 35.82 512 80C512 112.8 492.3 140.1 464 153.3V320C464 390.7 406.7 448 336 448H320V488zM456 79.1C456 66.74 445.3 55.1 432 55.1C418.7 55.1 408 66.74 408 79.1C408 93.25 418.7 103.1 432 103.1C445.3 103.1 456 93.25 456 79.1zM192 24C192 14.52 197.6 5.932 206.2 2.076C214.9-1.78 225-.1789 232.1 6.161L312.1 78.16C317.1 82.71 320 89.2 320 96C320 102.8 317.1 109.3 312.1 113.8L232.1 185.8C225 192.2 214.9 193.8 206.2 189.9C197.6 186.1 192 177.5 192 168V128H176C140.7 128 112 156.7 112 192V358.7C140.3 371 160 399.2 160 432C160 476.2 124.2 512 80 512C35.82 512 0 476.2 0 432C0 399.2 19.75 371 48 358.7V192C48 121.3 105.3 64 176 64H192V24zM56 432C56 445.3 66.75 456 80 456C93.25 456 104 445.3 104 432C104 418.7 93.25 408 80 408C66.75 408 56 418.7 56 432z"/>
</svg>
